X:12
T:Abbot of Canterbury - Tolcher
F:http://www.vwml.org/record/SBG/3/
Z:Original Sibelius transcriptions by M. & S. Graebe
M:4/4
I:linebreak $
K:Bb
V:1 treble nm="P1"
V:1
 D | G2 G G B2 A G | B2 B2 d3 D | G2 G G B2 A G | A2 G ^F A3 | G | B2 B B d2 c B |$ d2 d c g3 e | %8
w: ||||||||
 d2 d d g2 f e | d2 d B d2 z2 | d2 e2 d2 BA | G2 A2 G2 ^F2 | G4 z2 x2 | %13
w: ||Down down derry _ down|Derry _ derry _|down.|